app/assets/images/questions.svg

<svg width="40" height="50" viewBox="0 0 40 50" fill="none" xmlns="http://www.w3.org/2000/svg">
<path d="M30.3204 31.6092H10.8428C9.88337 31.6092 9.10889 30.839 9.10889 29.885C9.10889 28.931 9.88337 28.1609 10.8428 28.1609H30.3204C31.2798 28.1609 32.0543 28.931 32.0543 29.885C32.0543 30.839 31.2798 31.6092 30.3204 31.6092Z" fill="black"/>
<path d="M30.3204 37.5287H10.8428C9.88337 37.5287 9.10889 36.7586 9.10889 35.8046C9.10889 34.8506 9.88337 34.0804 10.8428 34.0804H30.3204C31.2798 34.0804 32.0543 34.8506 32.0543 35.8046C32.0543 36.7586 31.2798 37.5287 30.3204 37.5287Z" fill="black"/>
<path d="M39.9723 9.72414C39.9723 9.71264 39.9723 9.71264 39.9723 9.70115C39.9492 9.55172 39.8914 9.41379 39.8336 9.28736C39.8221 9.25287 39.799 9.21839 39.7874 9.1954C39.718 9.06897 39.6256 8.94253 39.5215 8.82759L31.3606 0.517241C31.2566 0.402299 31.1294 0.321839 30.9907 0.241379C30.956 0.218391 30.9213 0.206897 30.8982 0.183908C30.7595 0.114943 30.6208 0.0574713 30.4821 0.0344828C30.3665 0.0114942 30.2509 0 30.1353 0H5.12081C2.30032 0 0 2.28736 0 5.09195V44.908C0 47.7126 2.30032 50 5.12081 50H34.8747C37.6951 50 39.9955 47.7126 39.9955 44.908V10.023C40.007 9.91954 39.9955 9.81609 39.9723 9.72414ZM31.8461 5.94253L32.4125 6.51724L34.1464 8.28736H31.8345V5.94253H31.8461ZM34.8862 46.5402H5.12081C4.20762 46.5402 3.46781 45.8046 3.46781 44.8966V5.08046C3.46781 4.17241 4.20762 3.43678 5.12081 3.43678H28.3783V10.023C28.3783 10.977 29.1528 11.7471 30.1122 11.7471H36.5392V44.8966C36.5392 45.8046 35.7878 46.5402 34.8862 46.5402Z" fill="black"/>
<path d="M22.8179 9.78172C23.5577 10.1955 24.1819 10.7817 24.6096 11.4944C25.0373 12.207 25.2685 13.0116 25.28 13.8277C25.28 14.6438 25.0488 15.4484 24.6211 16.161C24.1934 16.8737 23.5692 17.4599 22.8294 17.8737C22.0896 18.2875 21.2342 18.5059 20.3788 18.5059C19.9511 18.5059 19.535 18.3334 19.2229 18.0461C18.9224 17.7472 18.749 17.3564 18.749 16.9426C18.749 16.5288 18.9108 16.1265 19.2229 15.8392C19.535 15.5518 19.9396 15.3909 20.3788 15.3909C20.8181 15.3909 21.2227 15.2185 21.5348 14.9311C21.8353 14.6323 22.0087 14.2415 22.0087 13.8277C22.0087 13.4139 21.8469 13.0116 21.5348 12.7242C21.2227 12.4254 20.8181 12.2645 20.3788 12.2645C20.0899 12.2645 19.8124 12.3334 19.5581 12.4714C19.3038 12.6093 19.0958 12.8047 18.957 13.0461C18.749 13.4024 18.3906 13.6668 17.9745 13.7702C17.5584 13.8737 17.1075 13.8277 16.7376 13.6208C16.5527 13.5174 16.3793 13.3794 16.2521 13.2185C16.1134 13.0576 16.021 12.8737 15.9632 12.6783C15.9054 12.4829 15.8938 12.276 15.9169 12.0691C15.9516 11.8737 16.021 11.6783 16.125 11.4944C16.5527 10.7817 17.1653 10.1955 17.9167 9.78172C18.6565 9.36793 19.5119 9.14954 20.3673 9.14954C21.2227 9.14954 22.0665 9.36793 22.8179 9.78172Z" fill="black"/>
<path d="M20.3671 20.0806C20.5752 20.0806 20.7948 20.1151 20.9913 20.1955C21.1878 20.276 21.3728 20.3909 21.5231 20.5404C21.8236 20.8277 21.997 21.23 21.997 21.6323C22.0086 21.8392 21.9623 22.0576 21.8699 22.2415C21.7889 22.4254 21.6733 22.5978 21.5231 22.7358C21.3612 22.8737 21.1763 23.0001 20.9798 23.0806C20.633 23.2185 20.24 23.23 19.8816 23.1266C19.5233 23.0231 19.2112 22.8047 19.0031 22.5059C18.7951 22.207 18.7026 21.8392 18.7373 21.4829C18.7835 21.1266 18.9453 20.7932 19.2112 20.5404C19.3615 20.3909 19.5464 20.276 19.7429 20.1955C19.9394 20.1266 20.1475 20.0806 20.3671 20.0806Z" fill="black"/>
</svg>

<svg width="40" height="50" fill="none" xmlns="http://www.w3.org/2000/svg"><path d="M30.32 31.61H10.844c-.96 0-1.734-.771-1.734-1.725 0-.954.775-1.724 1.734-1.724h19.478c.96 0 1.734.77 1.734 1.724s-.775 1.724-1.734 1.724zM30.32 37.529H10.844c-.96 0-1.734-.77-1.734-1.724s.775-1.725 1.734-1.725h19.478c.96 0 1.734.77 1.734 1.725 0 .954-.775 1.724-1.734 1.724z" fill="#000"/><path d="M39.972 9.724v-.023a1.586 1.586 0 00-.138-.414c-.012-.034-.035-.069-.047-.092a1.976 1.976 0 00-.265-.367L31.36.518a1.476 1.476 0 00-.37-.277c-.035-.023-.07-.034-.093-.057a1.513 1.513 0 00-.416-.15A1.774 1.774 0 0030.135 0H5.121C2.3 0 0 2.287 0 5.092v39.816C0 47.713 2.3 50 5.12 50h29.755c2.82 0 5.12-2.287 5.12-5.092V10.023a.85.85 0 00-.023-.299zm-8.126-3.781l.567.574 1.733 1.77h-2.312V5.943h.012zm3.04 40.597H5.121a1.648 1.648 0 01-1.653-1.643V5.08c0-.908.74-1.643 1.653-1.643h23.257v6.586c0 .954.775 1.724 1.734 1.724h6.427v33.15c0 .908-.751 1.643-1.653 1.643z" fill="#000"/><path d="M22.818 9.782c.74.413 1.364 1 1.792 1.712.428.713.659 1.518.67 2.334 0 .816-.23 1.62-.658 2.333a4.824 4.824 0 01-1.792 1.713 5.05 5.05 0 01-2.45.632c-.428 0-.845-.173-1.157-.46-.3-.299-.473-.69-.473-1.103 0-.414.161-.817.473-1.104a1.69 1.69 0 011.156-.448c.44 0 .844-.172 1.156-.46.3-.299.474-.69.474-1.103 0-.414-.162-.816-.474-1.104a1.65 1.65 0 00-1.156-.46c-.289 0-.566.07-.82.207a1.52 1.52 0 00-.602.575 1.58 1.58 0 01-.982.724 1.708 1.708 0 01-1.237-.15 1.65 1.65 0 01-.485-.401 1.443 1.443 0 01-.29-.54 1.541 1.541 0 01-.046-.61c.035-.195.104-.39.208-.575a4.739 4.739 0 011.792-1.712 5.05 5.05 0 012.45-.632c.856 0 1.7.218 2.451.632zM20.368 20.08a1.629 1.629 0 011.156.46c.3.288.473.69.473 1.092.012.207-.034.426-.127.61-.08.183-.196.356-.346.494a2.072 2.072 0 01-.544.345c-.346.137-.74.149-1.098.046a1.613 1.613 0 01-.878-.621 1.54 1.54 0 01-.266-1.023c.046-.356.208-.69.474-.943.15-.15.335-.264.531-.345a1.88 1.88 0 01.625-.114z" fill="#02CEAA"/></svg>
